COMP107/Assessments/Assessment 4/Assets/FSF Logo.svg

<svg width="50.553mm" height="22.205mm" version="1.1" viewBox="0 0 50.553 22.205" xmlns="http://www.w3.org/2000/svg" xmlns:xlink="http://www.w3.org/1999/xlink"><g transform="translate(-42.759 -83.391)"><a transform="translate(-178.69 -54.213)" xlink:href="https://www.gnu.org/philosophy/free-sw.html" xlink:title="Link to Free Software Foundation's free software definition."><g transform="matrix(.056623 0 0 .056623 221.45 137.43)" stroke="#000"><clipPath><path d="m0 0h3390.5v395.16h-3390.5z"/></clipPath><path d="m86.4 193.62h-86.4v-64.8h86.4v-50.4h-14.4v-36h14.4v-14.4h36v14.4h216c59.668-31.267 129.7-37.338 190.24-38.083 66.813-0.858 70.275-0.107 97.53 0.088 115.37 0.859 123.32 1.368 139.6-1.201 6.564-1.081 13.763 3.26 14.332 6.495 1.323 7.172-13.626 15.478-18.242 16.941-14.351 4.555-40.043 6.616-109.93 10.648l-1.664 0.034c-110.99 10.48-173.25 36.647-189.34 44.135-63.641 29.703-70.511 43.531-62.237 52.355 8.768 9.358 58.312-11.226 82.607-18.164 48.282-13.774 76.735-0.583 94.708 13.152h43.2v-7.2h28.8v7.2h244.8v64.8h-244.8v50.401h208.8v36h-208.8v115.2h-28.8v-115.2h-14.4v-36h14.4v-50.401h-14.4c-0.249 25.469-7.709 48.819-14.848 58.438-66.632 89.505-368.87 101.02-462.49 102.55-23.625 0.405-40.536-3.558-41.059-9.787m167.37-217.57c4.039-16.988 15.325-34.298 28.846-48.704l-158.2 0.631-0.574 49.838 129.12 0.524 0.61 1.033m498.38-118.76c-1.645-0.819-85.667 3.864-90.391 3.435-4.723-0.43-55.339 0.295-83.09-0.43-32.85-0.859-67.324 0.034-99.409 3.006-32.42 3.006-65.914 13.097-93.61 24.691-26.348 11.031-52.604 24.905-73.215 41.223-10.555 8.354-18.579 17.633-25.764 28.986-8.159 12.881-12.092 27.596-6.657 39.935 5.859 13.284 18.962 19.168 35.212 21.685 14.754 2.294 32.85 1.073 44.444 3.435 6.884 1.402 18.183 3.254 18.894 9.877 0.644 6.011-10.206 16.063-15.244 18.463-9.447 4.51-22.115 0.645-34.353-1.932-8.435-1.771-20.953-5.878-28.771-9.448-5.279-2.414-10.927-4.32-12.001-4.32-0.428 0-165.81-0.428-165.6 0 0 2.791-0.213 137.56 0 144 0.235 7.112 24.778 5.005 39.976 3.529 29.361-2.873 59.902-6.442 89.532-10.735 16.942-2.456 34.897-5.637 51.958-9.019 27.053-5.366 59.401-12.882 72.852-17.177 33.642-10.734 68.424-20.181 100.2-33.922 14.286-6.173 31.347-13.956 42.942-21.901 12.358-8.468 25.549-20.182 31.132-32.205 6.199-13.352 8.097-29.428 1.717-44.015-6.011-13.741-22.544-25.978-36.929-28.341-8.187-1.342-14.6-2.147-22.544-1.503-9.138 0.738-24.691 4.079-34.997 5.368-16.942 2.12-36.849 5.133-53.462 2.577-11.164-1.719-28.77-16.103-22.544-32.85 4.563-12.279 22.242-24.88 32.85-31.776 25.765-16.748 72.114-31.368 111.86-40.795 33.493-7.943 80.513-14.385 120.23-14.814 3.83-0.04 39.713-2.449 43.37-2.577 60.332-2.147 62.264-12.023 61.406-12.452" fill="#b11107" stroke="none"/></g></a></g></svg>

<?xml version="1.0" encoding="UTF-8" standalone="no"?>
<!-- Created with Inkscape (http://www.inkscape.org/) -->
<svg xmlns:svg="http://www.w3.org/2000/svg" xmlns="http://www.w3.org/2000/svg" version="1.0" width="1115.9464" height="490.18243" id="svg2434">
  <defs id="defs2436"/>
  <g transform="translate(232.25893,-284.41382)" id="layer1">
    <g transform="matrix(1.24994,0,0,1.24994,-232.25893,280.59622)" id="g5" style="fill-rule:nonzero;stroke:#000000;stroke-miterlimit:4">
      <clipPath id="aiclp1">
        <path d="M 0,0 L 3390.47,0 L 3390.47,395.159 L 0,395.159 L 0,0 z" id="path8"/>
      </clipPath>
      <g id="g10">
        <path d="M 86.4,193.619 L 0,193.619 L 0,128.819 L 86.4,128.819 L 86.4,78.419 L 72,78.419 L 72,42.419 L 86.4,42.419 L 86.4,28.019 L 122.4,28.019 L 122.4,42.419 L 338.4,42.419 C 398.068,11.152 468.102,5.081 528.635,4.336 C 595.448,3.478 598.91,4.229 626.165,4.424 C 741.533,5.283 749.485,5.792 765.768,3.223 C 772.332,2.142 779.531,6.483 780.1,9.718 C 781.423,16.89 766.474,25.196 761.858,26.659 C 747.507,31.214 721.815,33.275 651.929,37.307 L 650.265,37.341 C 539.276,47.821 477.012,73.988 460.922,81.476 C 397.281,111.179 390.411,125.007 398.685,133.831 C 407.453,143.189 456.997,122.605 481.292,115.667 C 529.574,101.893 558.027,115.084 576,128.819 L 619.2,128.819 L 619.2,121.619 L 648,121.619 L 648,128.819 L 892.8,128.819 L 892.8,193.619 L 648,193.619 L 648,244.02 L 856.8,244.02 L 856.8,280.02 L 648,280.02 L 648,395.219 L 619.2,395.219 L 619.2,280.02 L 604.8,280.02 L 604.8,244.02 L 619.2,244.02 L 619.2,193.619 L 604.8,193.619 C 604.551,219.088 597.091,242.438 589.952,252.057 C 523.32,341.562 221.084,353.077 127.459,354.605 C 103.834,355.01 86.923,351.047 86.4,344.818 M 253.773,127.251 C 257.812,110.263 269.098,92.953 282.619,78.547 L 124.419,79.178 L 123.845,129.016 L 252.962,129.54 L 253.572,130.573 M 751.955,11.815 C 750.31,10.996 666.288,15.679 661.564,15.25 C 656.841,14.82 606.225,15.545 578.474,14.82 C 545.624,13.961 511.15,14.854 479.065,17.826 C 446.645,20.832 413.151,30.923 385.455,42.517 C 359.107,53.548 332.851,67.422 312.24,83.74 C 301.685,92.094 293.661,101.373 286.476,112.726 C 278.317,125.607 274.384,140.322 279.819,152.661 C 285.678,165.945 298.781,171.829 315.031,174.346 C 329.785,176.64 347.881,175.419 359.475,177.781 C 366.359,179.183 377.658,181.035 378.369,187.658 C 379.013,193.669 368.163,203.721 363.125,206.121 C 353.678,210.631 341.01,206.766 328.772,204.189 C 320.337,202.418 307.819,198.311 300.001,194.741 C 294.722,192.327 289.074,190.421 288,190.421 C 287.572,190.421 122.187,189.993 122.4,190.421 C 122.4,193.212 122.187,327.981 122.4,334.421 C 122.635,341.533 147.178,339.426 162.376,337.95 C 191.737,335.077 222.278,331.508 251.908,327.215 C 268.85,324.759 286.805,321.578 303.866,318.196 C 330.919,312.83 363.267,305.314 376.718,301.019 C 410.36,290.285 445.142,280.838 476.918,267.097 C 491.204,260.924 508.265,253.141 519.86,245.196 C 532.218,236.728 545.409,225.014 550.992,212.991 C 557.191,199.639 559.089,183.563 552.709,168.976 C 546.698,155.235 530.165,142.998 515.78,140.635 C 507.593,139.293 501.18,138.488 493.236,139.132 C 484.098,139.87 468.545,143.211 458.239,144.5 C 441.297,146.62 421.39,149.633 404.777,147.077 C 393.613,145.358 376.007,130.974 382.233,114.227 C 386.796,101.948 404.475,89.347 415.083,82.451 C 440.848,65.703 487.197,51.083 526.945,41.656 C 560.438,33.713 607.458,27.271 647.179,26.842 C 651.009,26.802 686.892,24.393 690.549,24.265 C 750.881,22.118 752.813,12.242 751.955,11.813" id="path12" style="fill:#b11107;stroke:none"/>
      </g>
    </g>
  </g>
</svg>
